X:1
T:Title
%%score { ( 1 3 ) | ( 2 4 ) }
L:1/8
Q:1/4=110
M:4/4
K:D
V:1 treble nm="Grand Piano"
V:3 treble 
V:2 bass 
V:4 bass 
V:1
 [FA]2 [FA]2 [=F^G]2 [^FA]2 | B2 [FA]2 [Fd]4 | [EAc]2 [EAc]2 [EAc]2 [EAc]2 | [DGB]2 [DGc]2 [Fd]4 | %4
w: R.~E.~Hudson * * *||||
 [FA]2 [FA]2 [=F^G]2 [^FA]2 | d2 c2 B4 | d2 A2 F2 D2 | [A,DF]2[K:bass] [G,CE]2 [F,D]4 | %8
w: ||||
 [FA][FA][FA][FA] [FA]2 [FA]2 | [GB]2 [Gd]2 [FA]4 | [GB]2 [GB]2 [FA]2 [Fd]2 | c2 d2 e4 | %12
w: ||||
 [FA][FA][FA][FA] [FA]2 F2 | B2 d2 [DFA]4 | [DGB]2 [DGB]2 [A,FA]2 [F,D]2 | [A,DF]2 [G,CE]2 D4 | %16
w: ||||
 c6 z2 | d6 z2 | B6 z2 | A6 z2 | F2 A2 d2 f2 | d2 B2 A2 d2 | [DAf]4 [Ae]4 | [FAd]6 z2 |] %24
w: ||||||||
V:2
 [D,D]2 [D,D]2 [D,D]2 [D,D]2 | [D,D]2 [D,A,]2 [D,A,]4 | A,,2 A,,2 A,,2 A,,2 | A,2 A,2 [D,D]4 | %4
 [D,D]2 [D,D]2 [D,D]2 [D,D]2 | [D,A,D]2 [F,A,D]2 [G,D]4 | D2 A,2 F,2 D,2 | A,,2 A,,2 D,4 | %8
 [D,D][D,D][D,D][D,D] [D,D]2 [D,D]2 | [G,D]2 [G,B,]2 [D,D]4 | [G,D]2 [G,D]2 [D,D]2 [D,A,]2 | %11
 [A,E]2 [A,DE]2 [A,CE]4 | [D,D]2 [D,D][D,C] [D,D]2 [D,D]2 | [G,DG]2 [G,B,G]2[K:bass] D,4 | %14
 G,,2 B,,2 D,2 D,2 | A,,2 A,,2 [D,F,]4 | [A,EA]2 [A,E]2 [A,E]2 z2 | [D,D]2 [D,D]2 [D,D]2 z2 | %18
 [G,B,G]2 [G,B,]2 [G,B,]2 z2 | [D,D]2 [D,D]2 [D,D]2 z2 | F,2 A,2[K:treble] D2 F2 | %21
 D2 B,2 A,2[K:bass] D,2 | A,,4 z2 G2 | D,6 z2 |] %24
V:3
 x8 | x8 | x8 | x8 | x8 | x8 | x8 | x2[K:bass] x6 | x8 | x8 | x8 | x8 | x8 | x8 | x8 | x8 | %16
 z2 A2 A2 e2 | F2 F2 F2 z2 | z2 G2 G2 d2 | F2 F2 F2 z2 | x8 | x8 | z4 E2 z2 | x8 |] %24
V:4
 x8 | x8 | x8 | x8 | x8 | x8 | x8 | x8 | x8 | x8 | x8 | x8 | x8 | x4[K:bass] x4 | x8 | x8 | x8 | %17
 x8 | x8 | x8 | x4[K:treble] x4 | x6[K:bass] x2 | z4 A,,4 | x8 |] %24

